icons/logo-saveon.svg

<?xml version="1.0" encoding="UTF-8" standalone="no"?>
<!-- Created with Inkscape (http://www.inkscape.org/) -->
<svg
   xmlns:svg="http://www.w3.org/2000/svg"
   xmlns="http://www.w3.org/2000/svg"
   version="1.0"
   width="55"
   height="55"
   viewBox="0 0 55 55"
   id="svg2"
   xml:space="preserve"><defs
   id="defs41">
  
  

  
   
   
   
   
</defs>
<g
   transform="translate(-0.5507515,-1.7569535)"
   id="g3"
   style="fill:none;stroke:#ffffff;stroke-opacity:1">
  <line
   style="fill:none;stroke:#ffffff;stroke-width:3.5;stroke-linecap:round;stroke-linejoin:round;stroke-opacity:1"
   id="line3290"
   y2="4.9169998"
   y1="16.188"
   x2="52.441002"
   x1="41.169998" />
  <polyline
   style="fill:none;stroke:#ffffff;stroke-width:3.5;stroke-linecap:round;stroke-linejoin:round;stroke-opacity:1"
   id="polyline3292"
   points="51.562,15.306 41.17,16.188 42.053,5.794" />
</g>
<polygon
   points="10.932,6.088 31.874,6.088 43.818,18.027 43.818,48.914 10.932,48.914 10.932,6.088 "
   transform="translate(-6,2)"
   id="polygon9"
   style="fill:#ffffff;fill-opacity:1;stroke:#ffffff;stroke-width:3.5;stroke-opacity:1" /><polyline
   points="43.818,18.027 31.874,18.027 31.874,6.088"
   id="polyline11"
   style="fill:none;stroke:#ffffff;stroke-width:3.5;stroke-opacity:1"
   transform="translate(-6,2)" /><path
   d="M 21.379465,44.19975 C 21.102965,44.19975 20.829965,44.18225 20.560965,44.14975 L 21.254965,45.32425 L 21.938965,44.16775 C 21.753465,44.18275 21.568465,44.19975 21.379465,44.19975 z"
   id="path11"
   style="fill:#ffffff;fill-opacity:1;stroke:#000000;stroke-width:1.5;stroke-miterlimit:4;stroke-dasharray:none;stroke-opacity:1" /><g
   transform="matrix(0.5,0,0,0.5,7.630965,20.06025)"
   id="g13"
   style="fill:#ffffff;fill-opacity:1;stroke:#000000;stroke-width:3;stroke-miterlimit:4;stroke-dasharray:none;stroke-opacity:1">
    <path
   d="M 40.16,11.726 C 37.996,11.726 36.202,13.281 35.817,15.333 C 37.676,16.678 39.274,18.448 40.492,20.541 C 42.777,20.369 44.586,18.48 44.586,16.151 C 44.586,13.707 42.604,11.726 40.16,11.726 z"
   id="path15"
   style="fill:#ffffff;fill-opacity:1;stroke:#000000;stroke-width:3;stroke-miterlimit:4;stroke-dasharray:none;stroke-opacity:1" />
    <path
   d="M 40.713,39.887 C 39.489,42.119 37.853,44.018 35.916,45.443 C 36.437,47.307 38.129,48.682 40.16,48.682 C 42.603,48.682 44.586,46.702 44.586,44.258 C 44.586,42.003 42.893,40.162 40.713,39.887 z"
   id="path17"
   style="fill:#ffffff;fill-opacity:1;stroke:#000000;stroke-width:3;stroke-miterlimit:4;stroke-dasharray:none;stroke-opacity:1" />
    <path
   d="M 14.273,39.871 C 12.02,40.077 10.249,41.95 10.249,44.258 C 10.249,46.701 12.229,48.682 14.673,48.682 C 16.737,48.682 18.457,47.262 18.945,45.35 C 17.062,43.934 15.47,42.061 14.273,39.871 z"
   id="path19"
   style="fill:#ffffff;fill-opacity:1;stroke:#000000;stroke-width:3;stroke-miterlimit:4;stroke-dasharray:none;stroke-opacity:1" />
    <path
   d="M 19.026,15.437 C 18.683,13.334 16.872,11.726 14.673,11.726 C 12.229,11.726 10.249,13.707 10.249,16.15 C 10.249,18.532 12.135,20.46 14.494,20.556 C 15.68,18.513 17.226,16.772 19.026,15.437 z"
   id="path21"
   style="fill:#ffffff;fill-opacity:1;stroke:#000000;stroke-width:3;stroke-miterlimit:4;stroke-dasharray:none;stroke-opacity:1" />
   </g><path
   d="M 21.379465,26.34175 C 22.333465,26.34175 23.243465,26.54725 24.088465,26.90575 C 24.458965,26.36775 24.677465,25.71725 24.677465,25.01425 C 24.677465,23.17075 23.182965,21.67575 21.338965,21.67575 C 19.495465,21.67575 18.000965,23.17075 18.000965,25.01425 C 18.000965,25.72825 18.226965,26.38875 18.608965,26.93125 C 19.470965,26.55675 20.402465,26.34175 21.379465,26.34175 z"
   id="path23"
   style="fill:#ffffff;fill-opacity:1;stroke:#000000;stroke-width:1.5;stroke-miterlimit:4;stroke-dasharray:none;stroke-opacity:1" /><g
   transform="matrix(0.5,0,0,0.5,7.630965,20.06025)"
   id="g25"
   style="fill:#ffffff;fill-opacity:1;stroke:#000000;stroke-width:3;stroke-miterlimit:4;stroke-dasharray:none;stroke-opacity:1">
    <path
   d="M 43.102,30.421 C 43.102,35.1554 41.4568,39.7008 38.5314,43.0485 C 35.606,46.3963 31.6341,48.279 27.497,48.279 C 23.3599,48.279 19.388,46.3963 16.4626,43.0485 C 13.5372,39.7008 11.892,35.1554 11.892,30.421 C 11.892,20.6244 18.9364,12.563 27.497,12.563 C 36.0576,12.563 43.102,20.6244 43.102,30.421 z"
   id="path2988"
   style="fill:#ffffff;fill-opacity:1;stroke:#000000;stroke-width:3;stroke-miterlimit:4;stroke-dasharray:none;stroke-opacity:1" />
   </g><g
   transform="matrix(0.5,0,0,0.5,7.630965,20.06025)"
   id="g28"
   style="fill:#ffffff;fill-opacity:1;stroke:#000000;stroke-width:1.5;stroke-miterlimit:4;stroke-dasharray:none;stroke-opacity:1">
    <path
   d="M 25.875,33.75 L 24.333,29.125 L 27.497,26.538 L 31.112,29.164 L 29.625,33.833 L 25.875,33.75 z"
   id="path30"
   style="fill:#ffffff;fill-opacity:1;stroke:#000000;stroke-width:1.5;stroke-miterlimit:4;stroke-dasharray:none;stroke-opacity:1" />
    <path
   d="M 27.501,41.551 C 23.533,41.391 21.958,39.542 21.958,39.542 L 25.528,35.379 L 29.993,35.547 L 33.125,39.667 C 33.125,39.667 30.235,41.661 27.501,41.551 z"
   id="path32"
   style="fill:#ffffff;fill-opacity:1;stroke:#000000;stroke-width:1.5;stroke-miterlimit:4;stroke-dasharray:none;stroke-opacity:1" />
    <path
   d="M 18.453,33.843 C 17.604,30.875 18.625,26.959 18.625,26.959 L 22.625,29.126 L 24.118,33.755 L 20.536,37.988 C 20.536,37.987 19.071,35.998 18.453,33.843 z"
   id="path34"
   style="fill:#ffffff;fill-opacity:1;stroke:#000000;stroke-width:1.5;stroke-miterlimit:4;stroke-dasharray:none;stroke-opacity:1" />
    <path
   d="M 19.458,25.125 C 19.458,25.125 19.958,23.167 22.497,21.303 C 24.734,19.66 26.962,19.583 26.962,19.583 L 26.925,24.564 L 23.404,27.314 L 19.458,25.125 z"
   id="path2998"
   style="fill:#ffffff;fill-opacity:1;stroke:#000000;stroke-width:1.5;stroke-miterlimit:4;stroke-dasharray:none;stroke-opacity:1" />
    <path
   d="M 32.084,27.834 L 28.625,24.959 L 29,19.75 C 29,19.75 30.834,19.708 32.959,21.417 C 35.187,23.208 36.321,26.4 36.321,26.4 L 32.084,27.834 z"
   id="path37"
   style="fill:#ffffff;fill-opacity:1;stroke:#000000;stroke-width:1.5;stroke-miterlimit:4;stroke-dasharray:none;stroke-opacity:1" />
    <path
   d="M 31.292,34.042 L 32.605,29.578 L 36.792,28.042 C 36.792,28.042 37.469,30.705 36.75,33.709 C 36.21,35.965 34.666,38.07 34.666,38.07 L 31.292,34.042 z"
   id="path3002"
   style="fill:#ffffff;fill-opacity:1;stroke:#000000;stroke-width:1.5;stroke-miterlimit:4;stroke-dasharray:none;stroke-opacity:1" />
   </g>
</svg>

<?xml version="1.0" encoding="UTF-8" standalone="no"?>
<!-- Created with Inkscape (http://www.inkscape.org/) -->

<svg
   xmlns:svg="http://www.w3.org/2000/svg"
   xmlns="http://www.w3.org/2000/svg"
   version="1.1"
   width="58.5"
   height="55"
   viewBox="0 0 58.5 55"
   id="svg2"
   xml:space="preserve"><defs
     id="defs33">
	
	
	

  
  

  
   
   
   
   

		
	
		
	</defs><polygon
     points="56.75,34.543 50.056,32.715 50.056,2 8.433,2 8.433,32.715 1.75,34.542 29.252,52.581 "
     id="polygon7"
     style="fill:#00ff00;fill-opacity:1;stroke:#010101;stroke-width:3.5;stroke-linejoin:round" /><g
     transform="translate(16.080508,-9.0889831)"
     id="g3105"><path
       d="m 12.896306,44.429676 c -0.2765,0 -0.5495,-0.0175 -0.8185,-0.05 l 0.694,1.1745 0.684,-1.1565 c -0.1855,0.015 -0.3705,0.032 -0.5595,0.032 z"
       id="path11"
       style="fill:#ffffff;fill-opacity:1;stroke:#000000;stroke-width:1.5;stroke-miterlimit:4;stroke-opacity:1;stroke-dasharray:none" /><g
       transform="matrix(0.5,0,0,0.5,-0.8521941,20.290176)"
       id="g13"
       style="fill:#ffffff;fill-opacity:1;stroke:#000000;stroke-width:3;stroke-miterlimit:4;stroke-opacity:1;stroke-dasharray:none">
    <path
   d="m 40.16,11.726 c -2.164,0 -3.958,1.555 -4.343,3.607 1.859,1.345 3.457,3.115 4.675,5.208 2.285,-0.172 4.094,-2.061 4.094,-4.39 0,-2.444 -1.982,-4.425 -4.426,-4.425 z"
   id="path15"
   style="fill:#ffffff;fill-opacity:1;stroke:#000000;stroke-width:3;stroke-miterlimit:4;stroke-opacity:1;stroke-dasharray:none" />
    <path
   d="m 40.713,39.887 c -1.224,2.232 -2.86,4.131 -4.797,5.556 0.521,1.864 2.213,3.239 4.244,3.239 2.443,0 4.426,-1.98 4.426,-4.424 0,-2.255 -1.693,-4.096 -3.873,-4.371 z"
   id="path17"
   style="fill:#ffffff;fill-opacity:1;stroke:#000000;stroke-width:3;stroke-miterlimit:4;stroke-opacity:1;stroke-dasharray:none" />
    <path
   d="m 14.273,39.871 c -2.253,0.206 -4.024,2.079 -4.024,4.387 0,2.443 1.98,4.424 4.424,4.424 2.064,0 3.784,-1.42 4.272,-3.332 -1.883,-1.416 -3.475,-3.289 -4.672,-5.479 z"
   id="path19"
   style="fill:#ffffff;fill-opacity:1;stroke:#000000;stroke-width:3;stroke-miterlimit:4;stroke-opacity:1;stroke-dasharray:none" />
    <path
   d="m 19.026,15.437 c -0.343,-2.103 -2.154,-3.711 -4.353,-3.711 -2.444,0 -4.424,1.981 -4.424,4.424 0,2.382 1.886,4.31 4.245,4.406 1.186,-2.043 2.732,-3.784 4.532,-5.119 z"
   id="path21"
   style="fill:#ffffff;fill-opacity:1;stroke:#000000;stroke-width:3;stroke-miterlimit:4;stroke-opacity:1;stroke-dasharray:none" />
   </g><path
       d="m 12.896306,26.571676 c 0.954,0 1.864,0.2055 2.709,0.564 0.3705,-0.538 0.589,-1.1885 0.589,-1.8915 0,-1.8435 -1.4945,-3.3385 -3.3385,-3.3385 -1.8435,0 -3.3380001,1.495 -3.3380001,3.3385 0,0.714 0.226,1.3745 0.6080001,1.917 0.862,-0.3745 1.7935,-0.5895 2.7705,-0.5895 z"
       id="path23"
       style="fill:#ffffff;fill-opacity:1;stroke:#000000;stroke-width:1.5;stroke-miterlimit:4;stroke-opacity:1;stroke-dasharray:none" /><g
       transform="matrix(0.5,0,0,0.5,-0.8521941,20.290176)"
       id="g25"
       style="fill:#ffffff;fill-opacity:1;stroke:#000000;stroke-width:3;stroke-miterlimit:4;stroke-opacity:1;stroke-dasharray:none">
    <path
   d="m 43.102,30.421 c 0,4.7344 -1.6452,9.2798 -4.5706,12.6275 -2.9254,3.3478 -6.8973,5.2305 -11.0344,5.2305 -4.1371,0 -8.109,-1.8827 -11.0344,-5.2305 -2.9254,-3.3477 -4.5706,-7.8931 -4.5706,-12.6275 0,-9.7966 7.0444,-17.858 15.605,-17.858 8.5606,0 15.605,8.0614 15.605,17.858 z"
   id="path2988"
   style="fill:#ffffff;fill-opacity:1;stroke:#000000;stroke-width:3;stroke-miterlimit:4;stroke-opacity:1;stroke-dasharray:none" />
   </g><g
       transform="matrix(0.5,0,0,0.5,-0.8521941,20.290176)"
       id="g28"
       style="fill:#ffffff;fill-opacity:1;stroke:#000000;stroke-width:1.5;stroke-miterlimit:4;stroke-opacity:1;stroke-dasharray:none">
    <path
   d="m 25.875,33.75 -1.542,-4.625 3.164,-2.587 3.615,2.626 -1.487,4.669 -3.75,-0.083 z"
   id="path30"
   style="fill:#ffffff;fill-opacity:1;stroke:#000000;stroke-width:1.5;stroke-miterlimit:4;stroke-opacity:1;stroke-dasharray:none" />
    <path
   d="m 27.501,41.551 c -3.968,-0.16 -5.543,-2.009 -5.543,-2.009 l 3.57,-4.163 4.465,0.168 3.132,4.12 c 0,0 -2.89,1.994 -5.624,1.884 z"
   id="path32"
   style="fill:#ffffff;fill-opacity:1;stroke:#000000;stroke-width:1.5;stroke-miterlimit:4;stroke-opacity:1;stroke-dasharray:none" />
    <path
   d="m 18.453,33.843 c -0.849,-2.968 0.172,-6.884 0.172,-6.884 l 4,2.167 1.493,4.629 -3.582,4.233 c 0,-10e-4 -1.465,-1.99 -2.083,-4.145 z"
   id="path34"
   style="fill:#ffffff;fill-opacity:1;stroke:#000000;stroke-width:1.5;stroke-miterlimit:4;stroke-opacity:1;stroke-dasharray:none" />
    <path
   d="m 19.458,25.125 c 0,0 0.5,-1.958 3.039,-3.822 2.237,-1.643 4.465,-1.72 4.465,-1.72 l -0.037,4.981 -3.521,2.75 -3.946,-2.189 z"
   id="path2998"
   style="fill:#ffffff;fill-opacity:1;stroke:#000000;stroke-width:1.5;stroke-miterlimit:4;stroke-opacity:1;stroke-dasharray:none" />
    <path
   d="M 32.084,27.834 28.625,24.959 29,19.75 c 0,0 1.834,-0.042 3.959,1.667 2.228,1.791 3.362,4.983 3.362,4.983 l -4.237,1.434 z"
   id="path37"
   style="fill:#ffffff;fill-opacity:1;stroke:#000000;stroke-width:1.5;stroke-miterlimit:4;stroke-opacity:1;stroke-dasharray:none" />
    <path
   d="m 31.292,34.042 1.313,-4.464 4.187,-1.536 c 0,0 0.677,2.663 -0.042,5.667 -0.54,2.256 -2.084,4.361 -2.084,4.361 l -3.374,-4.028 z"
   id="path3002"
   style="fill:#ffffff;fill-opacity:1;stroke:#000000;stroke-width:1.5;stroke-miterlimit:4;stroke-opacity:1;stroke-dasharray:none" />
   </g></g></svg>
